X: 83
%
U:~=!turn!
U:n=!diminuendo(!
U:p=!diminuendo)!
T: Caller Herring
C:Nath. Gow
O:Scotland
B:Keith Norman MacDonald : "The Skye collection of the best reels & strathspeys extant" : 1887
Z:Ralph Palmer
R:Air
M:C
L:1/8
K:Bb
F | B2 B>B !sfz!A2 B z/c/ | (dG) Lc>B A(FGA) | B2 B>B A2 B z/c/ | (d.B) (c.A) B3 ::
.[gb] | .[fa].[eg].[df].[ce] .[Bd].[Fc].[DB].[gb] | .[fa].[eg].[df].[ce] .[Bd].[Fc].[DB].[gb] | .[fa].[eg].[df].[ce] .[Bd].[=Bd].[ce].[df] | gG ~c>B (AF)GA |
!p!B2 B>B (A2 B) z/c/ | dG ~Lc>B (AF).G.A | B2 B>B A2 B z/c/ | de Tc>B B3 ::
f | b b>b a2 .b z/a/ | n(gfepd) cde=e | f2 f>f !sfz!(=e2 f) z/g/ | a>b Tg>f f3 d |
!p!e2 e>e d2 e>f | gG !sfz!c>B (AFGA) | B2 B>B A2 B g/e/ | d>e Tc>B [D3F3B3] :|


